public/images/icons/creditCard.svg

<svg width="70" height="70" viewBox="0 0 70 70" fill="none" xmlns="http://www.w3.org/2000/svg">
    <path
        d="M29.0927 43.8239C30.2723 45.0035 31.872 45.6663 33.5401 45.6667L29.0927 43.8239ZM29.0927 43.8239C27.9128 42.644 27.2499 41.0437 27.2499 39.375M29.0927 43.8239L27.2499 39.375M27.2499 39.375C27.2499 37.7064 27.9128 36.1061 29.0927 34.9261M27.2499 39.375L29.0927 34.9261M29.0927 34.9261C30.2726 33.7462 31.8729 33.0834 33.5416 33.0834M29.0927 34.9261L33.5416 33.0834M33.5416 33.0834C34.4893 33.0834 35.4177 33.3019 36.2584 33.7155M33.5416 33.0834L36.2584 33.7155M36.2584 33.7155C35.7063 34.2974 35.2407 34.9589 34.8781 35.6801C34.3018 36.826 34.0017 38.0909 34.0017 39.3736C34.0017 40.6562 34.3018 41.9211 34.8781 43.067C35.2407 43.7882 35.7064 44.4498 36.2585 45.0317M36.2584 33.7155L36.2585 45.0317M36.2585 45.0317C35.4175 45.4457 34.4883 45.6653 33.5402 45.6667L36.2585 45.0317ZM11.6666 16.5H10.6666V17.5V52.5V53.5H11.6666H58.3333H59.3333V52.5V17.5V16.5H58.3333H11.6666ZM58.3333 57.3334H11.6666C10.3847 57.3334 9.15533 56.8241 8.2489 55.9177C7.34248 55.0113 6.83325 53.7819 6.83325 52.5V17.5C6.83325 16.2181 7.34248 14.9888 8.2489 14.0823C9.15533 13.1759 10.3847 12.6667 11.6666 12.6667H58.3333C59.6151 12.6667 60.8445 13.1759 61.7509 14.0823C62.6574 14.9888 63.1666 16.2181 63.1666 17.5V52.5C63.1666 53.7819 62.6574 55.0113 61.7509 55.9177C60.8445 56.8241 59.6151 57.3334 58.3333 57.3334ZM45.2083 45.6667C43.5396 45.6667 41.9393 45.0038 40.7594 43.8239C39.5795 42.644 38.9166 41.0437 38.9166 39.375C38.9166 37.7064 39.5795 36.1061 40.7594 34.9261C41.9393 33.7462 43.5396 33.0834 45.2083 33.0834C46.8769 33.0834 48.4772 33.7462 49.6571 34.9261C50.8371 36.1061 51.4999 37.7064 51.4999 39.375C51.4999 41.0437 50.8371 42.644 49.6571 43.8239C48.4772 45.0038 46.8769 45.6667 45.2083 45.6667Z"
        stroke="#1778CD" stroke-width="2" />
</svg>

<svg width="70" height="70" fill="none" xmlns="http://www.w3.org/2000/svg">
    <path
        d="M29.093 43.824a6.292 6.292 0 0 0 4.447 1.843l-4.447-1.843Zm0 0a6.292 6.292 0 0 1-1.843-4.449m1.843 4.449-1.843-4.449m0 0c0-1.669.663-3.269 1.843-4.449m-1.843 4.449 1.843-4.449m0 0a6.292 6.292 0 0 1 4.449-1.843m-4.45 1.843 4.45-1.843m0 0c.947 0 1.876.219 2.716.633m-2.716-.633 2.716.633m0 0a8.216 8.216 0 0 0-2.256 5.658 8.22 8.22 0 0 0 2.256 5.658m0-11.316v11.316m0 0a6.175 6.175 0 0 1-2.718.635l2.718-.635ZM11.667 16.5h-1v37h48.666v-37H11.667Zm46.666 40.833H11.667A4.834 4.834 0 0 1 6.833 52.5v-35a4.833 4.833 0 0 1 4.834-4.833h46.666a4.833 4.833 0 0 1 4.834 4.833v35a4.833 4.833 0 0 1-4.834 4.833ZM45.208 45.667a6.292 6.292 0 1 1 0-12.584 6.292 6.292 0 0 1 0 12.584Z"
        stroke="#1778CD" stroke-width="2" />
</svg>
